assets/img/new-chat.svg

<svg width="22" height="23" viewBox="0 0 22 23" fill="none" xmlns="http://www.w3.org/2000/svg">
<path d="M3.28901 22.0379L17.017 21.9841C17.8679 21.9783 18.6817 21.6352 19.2799 21.0301C19.878 20.425 20.2117 19.6073 20.2076 18.7564L20.1806 11.8585C20.1796 11.6158 20.0823 11.3834 19.91 11.2124C19.7377 11.0415 19.5045 10.9459 19.2618 10.9469C19.0191 10.9479 18.7867 11.0452 18.6157 11.2175C18.4447 11.3898 18.3492 11.623 18.3502 11.8657L18.3772 18.7636C18.3799 19.1291 18.2374 19.4808 17.981 19.7414C17.7247 20.002 17.3754 20.1503 17.0099 20.1537L3.28183 20.2075C2.91627 20.207 2.56584 20.0615 2.30745 19.8029C2.04906 19.5443 1.90382 19.1937 1.9036 18.8282L1.84985 5.12394C1.8472 4.75839 1.98969 4.40671 2.24604 4.1461C2.5024 3.88549 2.85168 3.73723 3.21722 3.73386L10.0812 3.70694C10.324 3.70598 10.5564 3.60865 10.7273 3.43634C10.8983 3.26403 10.9938 3.03087 10.9929 2.78814C10.9919 2.54542 10.8946 2.31301 10.7223 2.14205C10.55 1.97109 10.3168 1.87558 10.0741 1.87653L3.21004 1.90345C2.35919 1.90921 1.54539 2.2523 0.947214 2.85742C0.349043 3.46254 0.0153791 4.28026 0.0194468 5.13112L0.0731952 18.8354C0.0758016 19.6862 0.41587 20.5013 1.01877 21.1017C1.62167 21.7021 2.43814 22.0388 3.28901 22.0379Z" fill="#E61C24"/>
<path d="M8.69079 9.70207L7.98167 13.0124C7.94957 13.1626 7.95577 13.3184 7.99969 13.4655C8.04361 13.6127 8.12384 13.7464 8.233 13.8544C8.34363 13.9596 8.47802 14.0367 8.62476 14.0789C8.77149 14.1212 8.92626 14.1275 9.07595 14.0973L12.3733 13.3604C12.5445 13.3221 12.7011 13.2354 12.8245 13.1106L21.1329 4.73673C21.3869 4.48077 21.588 4.17728 21.7247 3.8436C21.8614 3.50992 21.931 3.15257 21.9296 2.79197C21.9282 2.43138 21.8558 2.07459 21.7165 1.74199C21.5771 1.40939 21.3737 1.10749 21.1177 0.853528C20.5929 0.356003 19.8966 0.0799421 19.1735 0.0827781C18.4504 0.0856141 17.7562 0.367128 17.2354 0.868755L8.93979 9.25081C8.81528 9.37427 8.72885 9.5309 8.69079 9.70207ZM18.5346 2.15869C18.708 1.9912 18.9395 1.89718 19.1806 1.89623C19.4217 1.89528 19.6539 1.98749 19.8287 2.15361C19.9986 2.32558 20.0944 2.55737 20.0953 2.79917C20.0963 3.04097 20.0024 3.2735 19.8337 3.4468L19.1892 4.09638L17.89 2.80736L18.5346 2.15869ZM10.4213 10.3487L16.5965 4.10929L17.8828 5.39196L11.7049 11.6333L10.0635 12.0003L10.4213 10.3487Z" fill="#E61C24"/>
</svg>

<?xml version="1.0" encoding="UTF-8"?>
<svg id="Layer_1" data-name="Layer 1" xmlns="http://www.w3.org/2000/svg" version="1.1" viewBox="0 0 22 23">
  <defs>
    <style>
      .cls-1 {
        fill: #6d58b1;
        stroke-width: 0px;
      }
    </style>
  </defs>
  <path class="cls-1" d="M3.3,22h13.7c.9,0,1.7-.4,2.3-1,.6-.6.9-1.4.9-2.3v-6.9c0-.2-.1-.5-.3-.6-.2-.2-.4-.3-.6-.3-.2,0-.5,0-.6.3-.2.2-.3.4-.3.6v6.9c0,.4-.1.7-.4,1-.3.3-.6.4-1,.4H3.3c-.4,0-.7,0-1-.4s-.4-.6-.4-1V5.1c0-.4,0-.7.3-1,.3-.3.6-.4,1-.4h6.9c.2,0,.5-.1.6-.3.2-.2.3-.4.3-.6,0-.2,0-.5-.3-.6-.2-.2-.4-.3-.6-.3H3.2c-.9,0-1.7.4-2.3,1C.3,3.5,0,4.3,0,5.1v13.7c0,.9.4,1.7,1,2.3.6.6,1.4.9,2.3.9Z"/>
  <path class="cls-1" d="M8.7,9.7l-.7,3.3c0,.2,0,.3,0,.5,0,.1.1.3.2.4.1.1.2.2.4.2.1,0,.3,0,.5,0l3.3-.7c.2,0,.3-.1.5-.2l8.3-8.4c.3-.3.5-.6.6-.9.1-.3.2-.7.2-1.1,0-.4,0-.7-.2-1-.1-.3-.3-.6-.6-.9-.5-.5-1.2-.8-1.9-.8-.7,0-1.4.3-1.9.8l-8.3,8.4c-.1.1-.2.3-.2.5ZM18.5,2.2c.2-.2.4-.3.6-.3.2,0,.5,0,.6.3.2.2.3.4.3.6,0,.2,0,.5-.3.6l-.6.6-1.3-1.3.6-.6ZM10.4,10.3l6.2-6.2,1.3,1.3-6.2,6.2-1.6.4.4-1.7Z"/>
</svg>
